svg/color/skl.svg

<svg width="64" height="65" viewBox="0 0 64 65" fill="none" xmlns="http://www.w3.org/2000/svg">
<rect y="0.303711" width="64" height="64" rx="32" fill="black"/>
<rect x="0.5" y="0.803711" width="63" height="63" rx="31.5" stroke="white" stroke-opacity="0.15"/>
<path d="M13.1199 15.6016V49.0648H44.1013V45.314H16.8301V19.3524H44.1013V15.6016H13.1199Z" fill="white"/>
<path d="M47.1789 28.4614C47.1789 27.6663 46.8712 26.9749 46.2555 26.3873C45.6401 25.7996 44.7852 25.5057 43.6738 25.5057C42.7334 25.5057 41.9982 25.6959 41.4511 26.0935C40.904 26.491 40.6304 27.0096 40.6304 27.6663C40.6304 28.012 40.6988 28.3232 40.8355 28.5997C40.9723 28.8763 41.1946 29.1183 41.5194 29.343C41.8443 29.5677 42.2717 29.7579 42.8189 29.9307C43.349 30.1035 44.0329 30.2591 44.8535 30.4146C46.9224 30.7949 48.4954 31.4344 49.5897 32.3159C50.6839 33.2147 51.2311 34.5284 51.2311 36.2741V36.6199C51.2311 37.5532 51.0601 38.3829 50.7353 39.1434C50.4104 39.8866 49.9317 40.5262 49.3162 41.062C48.7005 41.5978 47.9483 41.9954 47.0592 42.2892C46.1701 42.5658 45.1784 42.7213 44.067 42.7213C42.7676 42.7213 41.6391 42.5312 40.6475 42.1683C39.6558 41.8053 38.8351 41.2867 38.1853 40.6298C37.5356 39.9731 37.0227 39.2125 36.6978 38.331C36.3559 37.4495 36.1849 36.4816 36.1849 35.4445V35.2716H39.8952C39.8952 36.4642 40.2371 37.415 40.9211 38.1409C41.605 38.8496 42.665 39.2125 44.1184 39.2125C45.2468 39.2125 46.0846 38.9705 46.6317 38.4693C47.1789 37.968 47.4525 37.3804 47.4525 36.7063C47.4525 36.3779 47.4011 36.084 47.2814 35.7729C47.1617 35.4791 46.9737 35.2198 46.6831 34.9778C46.4095 34.7359 46.0162 34.5284 45.5204 34.3382C45.0246 34.1481 44.409 33.9926 43.6568 33.8543C42.665 33.6815 41.7588 33.4568 40.9211 33.1802C40.1003 32.9036 39.3823 32.5406 38.7667 32.0912C38.1512 31.6418 37.6895 31.0714 37.3476 30.3801C37.0056 29.6886 36.8346 28.859 36.8346 27.8738V27.701C36.8346 26.8885 37.0056 26.128 37.3305 25.4366C37.6553 24.7452 38.117 24.1402 38.7154 23.6217C39.3138 23.1032 40.0149 22.7056 40.8526 22.4291C41.6905 22.1525 42.6137 21.9969 43.6568 21.9969C44.8194 21.9969 45.8453 22.1698 46.7515 22.4982C47.6576 22.8266 48.41 23.276 49.0254 23.8464C49.641 24.4168 50.0513 25.0909 50.4104 25.8168C50.855 26.6984 50.872 28.496 50.872 28.496L47.1789 28.4614Z" fill="white"/>
</svg>

<svg xmlns="http://www.w3.org/2000/svg" width="64" height="65" fill="none" viewBox="0 0 64 65"><rect width="64" height="64" y=".304" fill="#000" rx="32"/><rect width="63" height="63" x=".5" y=".804" stroke="#fff" stroke-opacity=".15" rx="31.5"/><path fill="#fff" d="M13.12 15.602v33.463H44.1v-3.751H16.83V19.352H44.1v-3.75z"/><path fill="#fff" d="M47.179 28.461q0-1.192-.924-2.074c-.615-.587-1.47-.881-2.581-.881-.94 0-1.676.19-2.223.587-.547.398-.82.917-.82 1.573q0 .519.205.934c.136.276.359.518.683.743s.753.415 1.3.588c.53.172 1.214.328 2.034.484 2.07.38 3.642 1.02 4.737 1.9 1.094.9 1.641 2.213 1.641 3.96v.345c0 .933-.17 1.763-.496 2.523a5.4 5.4 0 0 1-1.419 1.919c-.616.536-1.368.933-2.257 1.227a10 10 0 0 1-2.992.432c-1.3 0-2.428-.19-3.42-.553-.991-.363-1.812-.881-2.462-1.538a6.4 6.4 0 0 1-1.487-2.299c-.342-.882-.513-1.85-.513-2.887v-.172h3.71c0 1.192.342 2.143 1.026 2.869.684.709 1.744 1.072 3.197 1.072 1.129 0 1.967-.242 2.514-.744q.82-.752.82-1.763c0-.328-.05-.622-.17-.933a2 2 0 0 0-.599-.795c-.273-.242-.667-.45-1.163-.64-.495-.19-1.111-.345-1.863-.484a19 19 0 0 1-2.736-.674 7.9 7.9 0 0 1-2.154-1.089 4.6 4.6 0 0 1-1.42-1.71c-.341-.692-.512-1.522-.512-2.507V27.7c0-.812.17-1.573.495-2.264a5.45 5.45 0 0 1 1.385-1.815 6.15 6.15 0 0 1 2.138-1.193 8.9 8.9 0 0 1 2.804-.432c1.162 0 2.188.173 3.095.501.906.329 1.658.778 2.273 1.348s1.026 1.245 1.385 1.97c.445.882.462 2.68.462 2.68z"/></svg>
